X:1
T:Villanella
T:Villanella
T:Orazio Vecchi (1550-1605)
%%score [ 1 2 3 ]
L:1/8
Q:1/4=60
M:3/4
K:F
V:1 treble nm="Soprano"
V:2 treble nm="Alto"
V:3 bass nm="Bass"
V:1
 G A | B G2 B A A | B2 G2 G A | B G2 B A A | B2 G2 d2 | G4 c B |: A A2 c d B | c c/ A/ B A G G | %8
w: Vil- la-|nel- la son io ma|bel- la son da|be- ne ma po- ve-|rel- la ahi-|mè! Io mi|chia- mo la Bru- net-|ti- na fa la la li lum|
 F3/2 c/ B A G G | A6 | d4 d2 | c3 B G2 | A3 G A2 | =B4 c2 | A3 G A2 | G c c B A A | %16
w: fa fa la la li lum|fa.|Che l'a-|mo- re mo-|ri- re mi|fa mo-|ri- re mi|fa fa la la li lum|
 G3/2 c/ c B A A | G4 A2 | A3 c B B | A3/2 G/ F/ G/ A/- A B/ c/ A/ | G3/2 F/ G A F2 || %21
w: fa fa la la li lum|fa E|chi mar- tel non|ha fa la la la _ la la la|la Che co- s'è a-|
[M:2/4] (G2 E) E ||[M:3/4] ^F A A B c c | =B2 z2 d2 | A2 z2 d2 | G2 z2 d2 |1 G4 c B :|2 G6 |] %28
w: mor _ non|sà Che co- s'è~a- mor non|sà Ahi-|mè! Ahi-|mè! Ahi-|mè! Io mi|mè!|
V:2
 G ^F | G D2 G E ^F | G2 D2 G ^F | G D2 G E ^F | G2 D2 ^F2 | G4 C G |: D C2 F D D | %7
w: Vil- la-|nel- la son io ma|bel- la son da|be- ne ma po- ve-|rel- la ahi-|mè! Io mi|chia- mo la Bru- net-|
 F F/ F/ D F D E | F3/2 F/ D F D E | F6 | F4 G2 | E3 F G2 | ^F3 E F2 | G4 E2 | ^F3 E F2 | %15
w: ti- na fa la la li lum|fa fa la la li lum|fa.|Che l'a-|mo- re mo-|ri- re mi|fa mo-|ri- re mi|
 G G E G G ^F | G3/2 G/ E G G ^F | G4 C2 | F3 C D E | F3/2 G/ A/ G/ F/- F F/ D/ F/ | %20
w: fa fa la la * lum|fa fa la la li lum|fa E|chi mar- tel non|ha fa la la la _ la la la|
 E3/2 D/ E F D2 ||[M:2/4] D E ^C C ||[M:3/4] D2 z2 A2 | D3/2 D/ D E F F | E3/2 D/ E G ^F F | %25
w: la la la Che co-|s'è a- mor non|sà Ahi-|mè! fa la la li lum|fa fa la la li lum|
 G4 ^F2 |1 G4 C E :|2 G6 |] %28
w: fa Ahi-|mè! Io mi|mè!|
V:3
 G, D, | G, G,2 G, C, D, | G,2 G,2 G, D, | G, G,2 G, C, D, | G,2 G,2 D,2 | G,4 F, G, |: %6
w: Vil- la-|nel- la son io ma|bel- la son da|be- ne ma po- ve-|rel- la ahi-|mè! Io mi|
 F, F,2 A, B, G, | F, F,/ F,/ G, A, B, C | F,3/2 F,/ B, D =B, C | F,6 | _B,4 B,2 | C3 D _E2 | %12
w: chia- mo la Bru- net-|ti- na fa la la li lum|fa fa la la li lum|fa.|Che l'a-|mo- re mo-|
 D3 C D2 | G,4 C,2 | D,3 C, D,2 | G, G, A, B, C D | G,2 z2 D2 | G,4 F,2 | F,3 A, G, G, | %19
w: ri- re mi|fa mo-|ri- re mi|fa fa la la li lum|fa li|fa E|chi mar- tel non|
 F,3/2 E,/ D,/ E,/ F,/- F, G,/ A,/ B,/ | C3 A, B,2 ||[M:2/4] G,2 A, A, ||[M:3/4] D, D C B, A, A, | %23
w: ha fa la la la _ la la la|la Che co-|s'è~a- mor non|sà fa la la li lum|
 G,3/2 G,/ F, E, D, D, | C,3/2 B,,/ A,, G,, D, D, | _E,4 D,2 |1 G,4 F, G, :|2 G,6 |] %28
w: fa fa la la li lum|fa fa la la li lum|fa Ahi-|mè! Io mi|mè!|

